X: 1
T: Reel With the Birl
R: reel
Z: 2007 John Chambers <jc:trillian.mit.edu>
N: From transcription by Peter Laban, from private recording by Micho Russell
M: C|
L: 1/8
K: Edor
|: E2BE DEBE | {G}E2BE {c}AFDF | E2BE d2z2 | (3ded {c}dB AFDF |
|  E2BE DEBE | {G}E2BE {c}AFDF | {A}GBAG G2z2 |1 (3dcd {e}dB AFDF :|2 (3dcd {e}dB A3B ||
[| (3cBA (3Bcd e3e | fdd2 fdBcd | g2ga g2fg | a2z2 agfa |
|  g3z fede | {g}edBd dBAF | G2{B}GF G2z2 | (3dcd {e}dB AFDF |]
